;START_OF_HEADER
;HEADER_VERSION:0.1
;FLAVOR:Griffin
;GENERATOR.NAME:Cura_SteamEngine
;GENERATOR.VERSION:3.6.0
;GENERATOR.BUILD_DATE:2018-11-12
;TARGET_MACHINE.NAME:Ultimaker 3
;EXTRUDER_TRAIN.0.INITIAL_TEMPERATURE:205
;EXTRUDER_TRAIN.0.MATERIAL.VOLUME_USED:11198
;EXTRUDER_TRAIN.0.MATERIAL.GUID:506c9f0d-e3aa-4bd4-b2d2-23e2425b1aa9
;EXTRUDER_TRAIN.0.NOZZLE.DIAMETER:0.4
;EXTRUDER_TRAIN.0.NOZZLE.NAME:AA 0.4
;BUILD_PLATE.TYPE:glass
;BUILD_PLATE.INITIAL_TEMPERATURE:60
;PRINT.TIME:9955
;PRINT.SIZE.MIN.X:9
;PRINT.SIZE.MIN.Y:6
;PRINT.SIZE.MIN.Z:0.27
;PRINT.SIZE.MAX.X:170.93
;PRINT.SIZE.MAX.Y:114.318
;PRINT.SIZE.MAX.Z:2.97
;END_OF_HEADER
;Generated with Cura_SteamEngine 3.6.0
T0
M82 ;absolute extrusion mode

G92 E0
M109 S205
G0 F15000 X9 Y6 Z2
G280
G1 F1500 E-6.5
;LAYER_COUNT:29
;LAYER:0
M107
M204 S625
M205 X6 Y6
G0 F4285.7 X63.461 Y48.223 Z0.27
M204 S500
M205 X5 Y5
;TYPE:SKIRT
G1 F1500 E0
G1 F1200 X63.94 Y47.653 E0.01323
G1 X64.477 Y47.138 E0.02646
G1 X65.066 Y46.683 E0.03969
G1 X65.7 Y46.294 E0.05291
G1 X66.373 Y45.975 E0.06615
G1 X67.076 Y45.73 E0.07939
G1 X67.801 Y45.562 E0.09262
G1 X68.54 Y45.473 E0.10585
G1 X69 Y45.458 E0.11403
G1 X89 Y45.458 E0.46955
G1 X89.743 Y45.498 E0.48277
G1 X90.478 Y45.617 E0.49601
G1 X91.196 Y45.815 E0.50925
G1 X91.888 Y46.088 E0.52247
G1 X92.547 Y46.434 E0.5357
G1 X93.165 Y46.849 E0.54894
G1 X93.735 Y47.328 E0.56217
G1 X94.25 Y47.865 E0.5754
G1 X94.705 Y48.454 E0.58863
G1 X95.094 Y49.088 E0.60185
G1 X95.413 Y49.761 E0.61509
G1 X95.658 Y50.464 E0.62832
G1 X95.826 Y51.189 E0.64155
G1 X95.915 Y51.928 E0.65478
G1 X95.93 Y52.388 E0.66296
G1 X95.93 Y60.458 E0.80642
G1 X137.07 Y60.458 E1.53772
G1 X137.07 Y52.388 E1.68117
G1 X137.11 Y51.645 E1.6944
G1 X137.229 Y50.91 E1.70763
G1 X137.427 Y50.192 E1.72087
G1 X137.7 Y49.5 E1.7341
G1 X138.046 Y48.841 E1.74733
G1 X138.461 Y48.223 E1.76056
G1 X138.94 Y47.653 E1.7738
G1 X139.477 Y47.138 E1.78702
G1 X140.066 Y46.683 E1.80025
G1 X140.7 Y46.294 E1.81347
G1 X141.373 Y45.975 E1.82671
G1 X142.076 Y45.73 E1.83995
G1 X142.801 Y45.562 E1.85318
G1 X143.54 Y45.473 E1.86641
G1 X144 Y45.458 E1.87459
G1 X164 Y45.458 E2.23011
G1 X164.743 Y45.498 E2.24333
G1 X165.478 Y45.617 E2.25657
G1 X166.196 Y45.815 E2.26981
G1 X166.888 Y46.088 E2.28303
G1 X167.547 Y46.434 E2.29626
G1 X168.165 Y46.849 E2.3095
G1 X168.735 Y47.328 E2.32273
G1 X169.25 Y47.865 E2.33596
G1 X169.705 Y48.454 E2.34919
G1 X170.094 Y49.088 E2.36241
G1 X170.413 Y49.761 E2.37565
G1 X170.658 Y50.464 E2.38888
G1 X170.826 Y51.189 E2.40211
G1 X170.915 Y51.928 E2.41534
G1 X170.93 Y52.388 E2.42352
G1 X170.93 Y107.388 E3.4012
G1 X170.89 Y108.131 E3.41443
G1 X170.771 Y108.866 E3.42767
G1 X170.573 Y109.584 E3.44091
G1 X170.3 Y110.276 E3.45413
G1 X169.954 Y110.935 E3.46736
G1 X169.539 Y111.553 E3.48059
G1 X169.06 Y112.123 E3.49383
G1 X168.523 Y112.638 E3.50705
G1 X167.934 Y113.093 E3.52028
G1 X167.3 Y113.482 E3.53351
G1 X166.627 Y113.801 E3.54674
G1 X165.924 Y114.046 E3.55998
G1 X165.199 Y114.214 E3.57321
G1 X164.46 Y114.303 E3.58644
G1 X164 Y114.318 E3.59462
G1 X69 Y114.318 E5.28334
G1 X68.257 Y114.278 E5.29656
G1 X67.522 Y114.159 E5.3098
G1 X66.804 Y113.961 E5.32304
G1 X66.112 Y113.688 E5.33626
G1 X65.453 Y113.342 E5.34949
G1 X64.835 Y112.927 E5.36273
G1 X64.265 Y112.448 E5.37596
G1 X63.75 Y111.911 E5.38919
G1 X63.295 Y111.322 E5.40242
G1 X62.906 Y110.688 E5.41564
G1 X62.587 Y110.015 E5.42888
G1 X62.342 Y109.312 E5.44211
G1 X62.174 Y108.587 E5.45534
G1 X62.085 Y107.848 E5.46857
G1 X62.07 Y107.388 E5.47675
G1 X62.07 Y52.388 E6.45443
G1 X62.11 Y51.645 E6.46766
G1 X62.229 Y50.91 E6.4809
G1 X62.427 Y50.192 E6.49414
G1 X62.7 Y49.5 E6.50736
G1 X63.046 Y48.841 E6.52059
G1 X63.461 Y48.223 E6.53382
M204 S625
M205 X6 Y6
G0 F4285.7 X63.878 Y48.37
M204 S500
M205 X5 Y5
G1 F1200 X64.354 Y47.828 E6.54664
G1 X64.887 Y47.342 E6.55947
G1 X65.471 Y46.918 E6.5723
G1 X66.098 Y46.561 E6.58512
G1 X66.76 Y46.275 E6.59794
G1 X67.45 Y46.065 E6.61076
G1 X68.159 Y45.933 E6.62358
G1 X69 Y45.878 E6.63856
G1 X89 Y45.878 E6.99408
G1 X89.72 Y45.918 E7.0069
G1 X90.432 Y46.037 E7.01973
G1 X91.126 Y46.235 E7.03256
G1 X91.793 Y46.508 E7.04537
G1 X92.427 Y46.853 E7.0582
G1 X93.018 Y47.266 E7.07102
G1 X93.56 Y47.742 E7.08384
G1 X94.046 Y48.275 E7.09666
G1 X94.47 Y48.859 E7.10949
G1 X94.827 Y49.486 E7.12232
G1 X95.113 Y50.148 E7.13514
G1 X95.323 Y50.838 E7.14796
G1 X95.455 Y51.547 E7.16078
G1 X95.51 Y52.388 E7.17576
G1 X95.51 Y60.878 E7.32668
G1 X137.49 Y60.878 E8.07291
G1 X137.49 Y52.388 E8.22383
G1 X137.53 Y51.668 E8.23665
G1 X137.649 Y50.956 E8.24948
G1 X137.847 Y50.262 E8.26231
G1 X138.12 Y49.595 E8.27512
G1 X138.465 Y48.961 E8.28795
G1 X138.878 Y48.37 E8.30077
G1 X139.354 Y47.828 E8.31359
G1 X139.887 Y47.342 E8.32641
G1 X140.471 Y46.918 E8.33924
G1 X141.098 Y46.561 E8.35207
G1 X141.76 Y46.275 E8.36489
G1 X142.45 Y46.065 E8.37771
G1 X143.159 Y45.933 E8.39053
G1 X144 Y45.878 E8.40551
G1 X164 Y45.878 E8.76103
G1 X164.72 Y45.918 E8.77385
G1 X165.432 Y46.037 E8.78668
G1 X166.126 Y46.235 E8.79951
G1 X166.793 Y46.508 E8.81232
G1 X167.427 Y46.853 E8.82515
G1 X168.018 Y47.266 E8.83797
G1 X168.56 Y47.742 E8.85079
G1 X169.046 Y48.275 E8.86361
G1 X169.47 Y48.859 E8.87644
G1 X169.827 Y49.486 E8.88926
G1 X170.113 Y50.148 E8.90208
G1 X170.323 Y50.838 E8.9149
G1 X170.455 Y51.547 E8.92772
G1 X170.51 Y52.388 E8.94271
G1 X170.51 Y107.388 E9.92038
G1 X170.47 Y108.108 E9.9332
G1 X170.351 Y108.82 E9.94603
G1 X170.153 Y109.514 E9.95886
G1 X169.88 Y110.181 E9.97167
G1 X169.535 Y110.815 E9.98451
G1 X169.122 Y111.406 E9.99732
G1 X168.646 Y111.948 E10.01014
G1 X168.113 Y112.434 E10.02297
G1 X167.529 Y112.858 E10.0358
G1 X166.902 Y113.215 E10.04862
G1 X166.24 Y113.501 E10.06144
G1 X165.55 Y113.711 E10.07426
G1 X164.841 Y113.843 E10.08708
G1 X164 Y113.898 E10.10206
G1 X69 Y113.898 E11.79078
G1 X68.28 Y113.858 E11.8036
G1 X67.568 Y113.739 E11.81643
G1 X66.874 Y113.541 E11.82926
G1 X66.207 Y113.268 E11.84207
G1 X65.573 Y112.923 E11.8549
G1 X64.982 Y112.51 E11.86772
G1 X64.44 Y112.034 E11.88054
G1 X63.954 Y111.501 E11.89336
G1 X63.53 Y110.917 E11.90619
G1 X63.173 Y110.29 E11.91902
G1 X62.887 Y109.628 E11.93183
G1 X62.677 Y108.938 E11.94466
G1 X62.545 Y108.229 E11.95748
G1 X62.49 Y107.388 E11.97246
G1 X62.49 Y52.388 E12.95014
G1 X62.53 Y51.668 E12.96295
G1 X62.649 Y50.956 E12.97579
G1 X62.847 Y50.262 E12.98862
G1 X63.12 Y49.595 E13.00143
G1 X63.465 Y48.961 E13.01426
G1 X63.878 Y48.37 E13.02707
M204 S625
M205 X6 Y6
G0 F4285.7 X64.295 Y48.522
M204 S500
M205 X5 Y5
G1 F1200 X64.768 Y48.009 E13.03948
G1 X65.296 Y47.554 E13.05187
G1 X65.873 Y47.162 E13.06427
G1 X66.492 Y46.839 E13.07668
G1 X67.143 Y46.588 E13.08908
G1 X67.819 Y46.414 E13.10149
G1 X68.51 Y46.318 E13.11389
G1 X69 Y46.298 E13.12261
G1 X89 Y46.298 E13.47813
G1 X89.697 Y46.338 E13.49054
G1 X90.384 Y46.457 E13.50293
G1 X91.053 Y46.655 E13.51533
G1 X91.696 Y46.927 E13.52774
G1 X92.302 Y47.271 E13.54013
G1 X92.866 Y47.683 E13.55255
G1 X93.379 Y48.156 E13.56495
G1 X93.834 Y48.684 E13.57734
G1 X94.226 Y49.261 E13.58974
G1 X94.549 Y49.88 E13.60215
G1 X94.8 Y50.531 E13.61455
G1 X94.974 Y51.207 E13.62696
G1 X95.07 Y51.898 E13.63936
G1 X95.09 Y52.388 E13.64808
G1 X95.09 Y61.298 E13.80646
G1 X137.91 Y61.298 E14.56763
G1 X137.91 Y52.388 E14.72602
G1 X137.95 Y51.691 E14.73843
G1 X138.069 Y51.004 E14.75082
G1 X138.267 Y50.335 E14.76322
G1 X138.539 Y49.692 E14.77563
G1 X138.883 Y49.086 E14.78802
G1 X139.295 Y48.522 E14.80044
G1 X139.768 Y48.009 E14.81284
G1 X140.296 Y47.554 E14.82523
G1 X140.873 Y47.162 E14.83763
G1 X141.492 Y46.839 E14.85004
G1 X142.143 Y46.588 E14.86244
G1 X142.819 Y46.414 E14.87485
G1 X143.51 Y46.318 E14.88725
G1 X144 Y46.298 E14.89597
G1 X164 Y46.298 E15.25149
G1 X164.697 Y46.338 E15.2639
G1 X165.384 Y46.457 E15.27629
G1 X166.053 Y46.655 E15.28869
G1 X166.696 Y46.927 E15.30111
G1 X167.302 Y47.271 E15.31349
G1 X167.866 Y47.683 E15.32591
G1 X168.379 Y48.156 E15.33831
G1 X168.834 Y48.684 E15.3507
G1 X169.226 Y49.261 E15.3631
G1 X169.549 Y49.88 E15.37551
G1 X169.8 Y50.531 E15.38792
G1 X169.974 Y51.207 E15.40032
G1 X170.07 Y51.898 E15.41272
G1 X170.09 Y52.388 E15.42144
G1 X170.09 Y107.388 E16.39912
G1 X170.05 Y108.085 E16.41153
G1 X169.931 Y108.772 E16.42392
G1 X169.733 Y109.441 E16.43633
G1 X169.461 Y110.084 E16.44874
G1 X169.117 Y110.69 E16.46112
G1 X168.705 Y111.254 E16.47354
G1 X168.232 Y111.767 E16.48594
G1 X167.704 Y112.222 E16.49833
G1 X167.127 Y112.614 E16.51073
G1 X166.508 Y112.937 E16.52314
G1 X165.857 Y113.188 E16.53555
G1 X165.181 Y113.362 E16.54796
G1 X164.49 Y113.458 E16.56036
G1 X164 Y113.478 E16.56907
G1 X69 Y113.478 E18.25779
G1 X68.303 Y113.438 E18.2702
G1 X67.616 Y113.319 E18.2826
G1 X66.947 Y113.121 E18.295
G1 X66.304 Y112.849 E18.30741
G1 X65.698 Y112.505 E18.3198
G1 X65.134 Y112.093 E18.33221
G1 X64.621 Y111.62 E18.34462
G1 X64.166 Y111.092 E18.357
G1 X63.774 Y110.515 E18.3694
G1 X63.451 Y109.896 E18.38182
G1 X63.2 Y109.245 E18.39422
G1 X63.026 Y108.569 E18.40663
G1 X62.93 Y107.878 E18.41903
G1 X62.91 Y107.388 E18.42775
G1 X62.91 Y52.388 E19.40542
G1 X62.95 Y51.691 E19.41783
G1 X63.069 Y51.004 E19.43023
G1 X63.267 Y50.335 E19.44263
G1 X63.539 Y49.692 E19.45504
G1 X63.883 Y49.086 E19.46743
G1 X64.295 Y48.522 E19.47984
M204 S625
M205 X6 Y6
G0 F4285.7 X64.301 Y49.215
M204 S500
M205 X5 Y5
G1 F1200 X64.71 Y48.68 E19.49181
G1 X65.18 Y48.198 E19.50378
G1 X65.704 Y47.775 E19.51575
G1 X66.274 Y47.416 E19.52773
G1 X66.882 Y47.128 E19.53969
G1 X67.52 Y46.914 E19.55165
G1 X68.18 Y46.778 E19.56363
G1 X69 Y46.718 E19.57824
G1 X89 Y46.718 E19.93376
G1 X89.672 Y46.758 E19.94573
G1 X90.335 Y46.877 E19.9577
G1 X90.978 Y47.074 E19.96966
G1 X91.594 Y47.346 E19.98163
G1 X92.173 Y47.689 E19.99359
G1 X92.708 Y48.098 E20.00556
G1 X93.19 Y48.568 E20.01753
G1 X93.613 Y49.092 E20.0295
G1 X93.972 Y49.662 E20.04147
G1 X94.26 Y50.27 E20.05343
G1 X94.474 Y50.908 E20.06539
G1 X94.61 Y51.568 E20.07737
G1 X94.67 Y52.388 E20.09199
G1 X94.67 Y61.718 E20.25784
G1 X138.33 Y61.718 E21.03394
G1 X138.33 Y52.388 E21.19979
G1 X138.37 Y51.716 E21.21175
G1 X138.489 Y51.053 E21.22373
G1 X138.686 Y50.41 E21.23568
G1 X138.958 Y49.794 E21.24765
G1 X139.301 Y49.215 E21.25961
G1 X139.71 Y48.68 E21.27158
G1 X140.18 Y48.198 E21.28355
G1 X140.704 Y47.775 E21.29552
G1 X141.274 Y47.416 E21.3075
G1 X141.882 Y47.128 E21.31946
G1 X142.52 Y46.914 E21.33142
G1 X143.18 Y46.778 E21.3434
G1 X144 Y46.718 E21.35801
G1 X164 Y46.718 E21.71353
G1 X164.672 Y46.758 E21.7255
G1 X165.335 Y46.877 E21.73747
G1 X165.978 Y47.074 E21.74943
G1 X166.594 Y47.346 E21.7614
G1 X167.173 Y47.689 E21.77336
G1 X167.708 Y48.098 E21.78533
G1 X168.19 Y48.568 E21.7973
G1 X168.613 Y49.092 E21.80927
G1 X168.972 Y49.662 E21.82124
G1 X169.26 Y50.27 E21.8332
G1 X169.474 Y50.908 E21.84516
G1 X169.61 Y51.568 E21.85714
G1 X169.67 Y52.388 E21.87176
G1 X169.67 Y107.388 E22.84944
G1 X169.63 Y108.06 E22.8614
G1 X169.511 Y108.723 E22.87338
G1 X169.314 Y109.366 E22.88533
G1 X169.042 Y109.982 E22.8973
G1 X168.699 Y110.561 E22.90926
G1 X168.29 Y111.096 E22.92123
G1 X167.82 Y111.578 E22.9332
G1 X167.296 Y112.001 E22.94517
G1 X166.726 Y112.36 E22.95715
G1 X166.118 Y112.648 E22.96911
G1 X165.48 Y112.862 E22.98107
G1 X164.82 Y112.998 E22.99305
G1 X164 Y113.058 E23.00766
G1 X69 Y113.058 E24.69638
G1 X68.328 Y113.018 E24.70835
G1 X67.665 Y112.899 E24.72032
G1 X67.022 Y112.702 E24.73227
G1 X66.406 Y112.43 E24.74424
G1 X65.827 Y112.087 E24.75621
G1 X65.292 Y111.678 E24.76818
G1 X64.81 Y111.208 E24.78014
G1 X64.387 Y110.684 E24.79212
G1 X64.028 Y110.114 E24.80409
G1 X63.74 Y109.506 E24.81605
G1 X63.526 Y108.868 E24.82801
G1 X63.39 Y108.208 E24.83999
G1 X63.33 Y107.388 E24.8546
G1 X63.33 Y52.388 E25.83228
G1 X63.37 Y51.716 E25.84425
G1 X63.489 Y51.053 E25.85622
G1 X63.686 Y50.41 E25.86818
G1 X63.958 Y49.794 E25.88015
G1 X64.301 Y49.215 E25.89211
M204 S625
M205 X6 Y6
G0 F4285.7 X64.719 Y49.349
M204 S500
M205 X5 Y5
G1 F1200 X65.126 Y48.845 E25.90363
G1 X65.592 Y48.395 E25.91514
G1 X66.109 Y48.006 E25.92664
G1 X66.671 Y47.683 E25.93817
G1 X67.268 Y47.432 E25.94968
G1 X67.892 Y47.256 E25.9612
G1 X68.532 Y47.159 E25.97271
G1 X69 Y47.138 E25.98104
G1 X89 Y47.138 E26.33656
G1 X89.647 Y47.178 E26.34808
G1 X90.283 Y47.297 E26.35958
G1 X90.9 Y47.494 E26.37109
G1 X91.489 Y47.765 E26.38262
G1 X92.039 Y48.107 E26.39413
G1 X92.543 Y48.514 E26.40565
G1 X92.993 Y48.98 E26.41716
G1 X93.382 Y49.497 E26.42866
G1 X93.705 Y50.059 E26.44019
G1 X93.956 Y50.656 E26.4517
G1 X94.132 Y51.28 E26.46322
G1 X94.229 Y51.92 E26.47473
G1 X94.25 Y52.388 E26.48306
G1 X94.25 Y62.138 E26.65637
G1 X138.75 Y62.138 E27.4474
G1 X138.75 Y52.388 E27.62072
G1 X138.79 Y51.741 E27.63224
G1 X138.909 Y51.105 E27.64374
G1 X139.106 Y50.488 E27.65526
G1 X139.377 Y49.899 E27.66678
G1 X139.719 Y49.349 E27.6783
G1 X140.126 Y48.845 E27.68981
G1 X140.592 Y48.395 E27.70133
G1 X141.109 Y48.006 E27.71283
G1 X141.671 Y47.683 E27.72435
G1 X142.268 Y47.432 E27.73586
G1 X142.892 Y47.256 E27.74739
G1 X143.532 Y47.159 E27.75889
G1 X144 Y47.138 E27.76722
G1 X164 Y47.138 E28.12274
G1 X164.647 Y47.178 E28.13426
G1 X165.283 Y47.297 E28.14577
G1 X165.9 Y47.494 E28.15728
G1 X166.489 Y47.765 E28.1688
G1 X167.039 Y48.107 E28.18032
G1 X167.543 Y48.514 E28.19183
G1 X167.993 Y48.98 E28.20335
G1 X168.382 Y49.497 E28.21485
G1 X168.705 Y50.059 E28.22637
G1 X168.956 Y50.656 E28.23788
G1 X169.132 Y51.28 E28.24941
G1 X169.229 Y51.92 E28.26092
G1 X169.25 Y52.388 E28.26924
G1 X169.25 Y107.388 E29.24692
G1 X169.21 Y108.035 E29.25844
G1 X169.091 Y108.671 E29.26995
G1 X168.894 Y109.288 E29.28146
G1 X168.623 Y109.877 E29.29298
G1 X168.281 Y110.427 E29.3045
G1 X167.874 Y110.931 E29.31601
G1 X167.408 Y111.381 E29.32753
G1 X166.891 Y111.77 E29.33903
G1 X166.329 Y112.093 E29.35055
G1 X165.732 Y112.344 E29.36206
G1 X165.108 Y112.52 E29.37359
G1 X164.468 Y112.617 E29.3851
G1 X164 Y112.638 E29.39342
G1 X69 Y112.638 E31.08214
G1 X68.353 Y112.598 E31.09366
G1 X67.717 Y112.479 E31.10517
G1 X67.1 Y112.282 E31.11668
G1 X66.511 Y112.011 E31.1282
G1 X65.961 Y111.669 E31.13972
G1 X65.457 Y111.262 E31.15123
G1 X65.007 Y110.796 E31.16275
G1 X64.618 Y110.279 E31.17425
G1 X64.295 Y109.717 E31.18577
G1 X64.044 Y109.12 E31.19728
G1 X63.868 Y108.496 E31.20881
G1 X63.771 Y107.856 E31.22031
G1 X63.75 Y107.388 E31.22864
G1 X63.75 Y52.388 E32.20632
G1 X63.79 Y51.741 E32.21784
G1 X63.909 Y51.105 E32.22935
G1 X64.106 Y50.488 E32.24086
G1 X64.377 Y49.899 E32.25238
G1 X64.719 Y49.349 E32.2639
M204 S625
M205 X6 Y6
G0 F4285.7 X65.136 Y49.49
M204 S500
M205 X5 Y5
G1 F1200 X65.54 Y49.018 E32.27494
G1 X66.002 Y48.601 E32.286
G1 X66.512 Y48.248 E32.29703
G1 X67.064 Y47.963 E32.30807
G1 X67.649 Y47.751 E32.31913
G1 X68.255 Y47.616 E32.33017
G1 X69 Y47.558 E32.34345
G1 X89 Y47.558 E32.69897
G1 X89.62 Y47.598 E32.71002
G1 X90.23 Y47.717 E32.72106
G1 X90.819 Y47.914 E32.7321
G1 X91.378 Y48.184 E32.74314
G1 X91.898 Y48.524 E32.75418
G1 X92.37 Y48.928 E32.76523
G1 X92.787 Y49.39 E32.77629
G1 X93.14 Y49.9 E32.78732
G1 X93.425 Y50.452 E32.79836
G1 X93.637 Y51.037 E32.80942
G1 X93.772 Y51.643 E32.82046
G1 X93.83 Y52.388 E32.83374
G1 X93.83 Y62.558 E33.01452
G1 X139.17 Y62.558 E33.82048
G1 X139.17 Y52.388 E34.00127
G1 X139.21 Y51.768 E34.01231
G1 X139.329 Y51.158 E34.02336
G1 X139.526 Y50.569 E34.0344
G1 X139.796 Y50.01 E34.04543
G1 X140.136 Y49.49 E34.05648
G1 X140.54 Y49.018 E34.06752
G1 X141.002 Y48.601 E34.07858
G1 X141.512 Y48.248 E34.08961
G1 X142.064 Y47.963 E34.10065
G1 X142.649 Y47.751 E34.11171
G1 X143.255 Y47.616 E34.12275
G1 X144 Y47.558 E34.13603
G1 X164 Y47.558 E34.49155
G1 X164.62 Y47.598 E34.5026
G1 X165.23 Y47.717 E34.51364
G1 X165.819 Y47.914 E34.52468
G1 X166.378 Y48.184 E34.53572
G1 X166.898 Y48.524 E34.54676
G1 X167.37 Y48.928 E34.55781
G1 X167.787 Y49.39 E34.56887
G1 X168.14 Y49.9 E34.5799
G1 X168.425 Y50.452 E34.59094
G1 X168.637 Y51.037 E34.602
G1 X168.772 Y51.643 E34.61304
G1 X168.83 Y52.388 E34.62632
G1 X168.83 Y107.388 E35.604
G1 X168.79 Y108.008 E35.61504
G1 X168.671 Y108.618 E35.62609
G1 X168.474 Y109.207 E35.63713
G1 X168.204 Y109.766 E35.64816
G1 X167.864 Y110.286 E35.65921
G1 X167.46 Y110.758 E35.67025
G1 X166.998 Y111.175 E35.68132
G1 X166.488 Y111.528 E35.69234
G1 X165.936 Y111.813 E35.70338
